X:1
T: The Millburn
C:Wilfred Gillis
R:Reel
Q: 232
K:F
M:4/4
L:1/8
|:fg|((3agf) ge fc Ac|BA Bd g^f ga|bg af ge cA|BA Bd c2 fg|
af ge fc Ac|BA Bd g^f ga|gf ed cb eg|1f2 a2 f2:|2f2 a2 f4|
|:((3cdc) Ac fc ec|((3ded) Bd gd fd|((3efe) ce be ae|ge fd cB AB|
((3cdc) Ac fc ec|((3ded) Bd gd fd|ef ga bg eg|1f2 a2 f4:|2f2 a2 f2||
